X:0224
T:The Steward's Lodge Song.
N:probably the third note in bar 9 ought to be a4
M:C
L:1/8
Q:1/2=104
I: :: ::
Z:Jack Campin * www.campin.me.uk * 2009
K:D
de|f2(d2 d2)D2|F2(A2 A2)dc|B2A2 G2F2|E2e2 e3f|
   g2 f2 e2 d2|cdec  A3  A|BcdB cdeg|f2d2 d2:|
de|f3  g g4   |e3f   g4   |B2g2 f2ed|cdec A4 |
   d3  c B4   |e3d  Tc4   |a2gf efge|f2d2 d2:|

